!!!COM: Music21
!!!OTL: reel_Corofin-Departure--The
!!!OMV: reel_Corofin-Departure--The
**kern
*clefG2
*k[f#]
*G:
*M4/4
=1
8dL
8gJ
8bL
8ddJ
8ccL
8eJ
8gL
8eJ
=
8dL
8gJ
8bL
8gJ
8aL
8gJ
8aL
8bJ
=
8ccL
8ddJ
8eeL
8ddJ
8ccL
8bJ
8aL
8bJ
=
8ccL
8bJ
8aL
8gJ
12f#L
12g
12aJ
8dL
8cJ
=
8BL
8dJ
8gL
8bJ
8ccL
8eJ
8gL
8eJ
!!linebreak:original
=
8dL
8gJ
8bL
8gJ
8aL
8gJ
8aL
8bJ
=
8ccL
8ddJ
8eeL
8ddJ
8ccL
8bJ
8aL
8bJ
=
8ccL
8aJ
8dL
8f#J
2g
=||
*M4/4
8dL
8gJ
8bL
8ddJ
8ccL
8eJ
8gL
8eJ
=
8dL
8gJ
8bL
8gJ
8aL
8gJ
8aL
8bJ
!!linebreak:original
=
8ccL
8ddJ
8eeL
8ddJ
8ccL
8bJ
8aL
8bJ
=
8ccL
8bJ
8aL
8gJ
12f#L
12g
12aJ
8dL
8cJ
=
8BL
8dJ
8gL
8bJ
8ccL
8eJ
8gL
8eJ
=
8dL
8gJ
8bL
8gJ
8aL
8gJ
8aL
8bJ
=
8ccL
8ddJ
8eeL
8ddJ
8ccL
8bJ
8aL
8bJ
!!linebreak:original
=
8ccL
8aJ
8dL
8f#J
2g
=||
4.dd
8b
4.cc
8a
=
8bL
8bJ
8aL
8bJ
4g
8aL
8bJ
=
8ccL
8ddJ
8eeL
8ddJ
8ccL
8bJ
8aL
8bJ
=
8ccL
8bJ
8aL
8gJ
4f#
12aL
12b
12ccJ
=
4.dd
8b
4.cc
8a
!!linebreak:original
=
8bL
8bJ
8aL
8bJ
4g
8aL
8bJ
=
8ccL
8ddJ
8eeL
8ddJ
8ccL
8bJ
8aL
8bJ
=
8ccL
8aJ
8dL
8f#J
4g
12aL
12b
12ccJ
=||
4.dd
8b
4.cc
8a
=
8bL
8bJ
8aL
8bJ
4g
8aL
8bJ
!!linebreak:original
=
8ccL
8ddJ
8eeL
8ddJ
8ccL
8bJ
8aL
8bJ
=
8ccL
8bJ
8aL
8gJ
4f#
12aL
12b
12ccJ
=
4.dd
8b
4.cc
8a
=
8bL
8bJ
8aL
8bJ
4g
8aL
8bJ
=
8ccL
8ddJ
8eeL
8ddJ
8ccL
8bJ
8aL
8bJ
!!linebreak:original
=
8ccL
8aJ
8dL
8f#J
4g
12aL
12b
12ccJ
=||
*-
